X: 28
T:Miss Monaghan
% Nottingham Music Database
S:via PR
M:4/4
L:1/4
K:D
"D"[DF](3[F/2A/2][E/2G/2][D/2F/2] [F/2A/2][A/2d/2][Ad]|"G"[B/2d/2][c/2e/2][B/2d/2][A/2c/2] "A7"[F/2A/2][A/2c/2][A/2c/2][c/2e/2]|\
"G"[d/2g/2][e/2g/2][d/2g/2][B/2d/2] "D"[A/2d/2][c/2e/2][d/2f/2][e/2g/2]|"D"[f/2a/2][e/2g/2][d/2f/2][e/2g/2] "A7"[f/2a/2][e/2g/2][eg]|
"D"[DF](3[F/2A/2][E/2G/2][D/2F/2] [F/2A/2][A/2d/2][Ad]|"G"[B/2d/2][c/2e/2][B/2d/2][A/2c/2] "A7"[F/2A/2][A/2c/2][A/2c/2][c/2e/2]|\
"G"[d/2g/2][e/2g/2][d/2g/2][B/2d/2] "D"[A/2d/2][c/2e/2][d/2f/2][B/2d/2]|"A7"[A/2c/2][F/2A/2][E/2G/2][G/2A/2] "D"[F/2A/2][D/2F/2]D::
"D"[f/2a/2][a/2d'/2][a/2d'/2][b/2d'/2] [a/2d'/2][f/2a/2][d/2f/2][f/2a/2]|"G"[g/2b/2][e/2g/2][f/2a/2][d/2g/2] "A7"[e/2g/2][d/2f/2][B/2d/2][c/2e/2]|\
"D"[d/2f/2][e/2g/2][d/2f/2][B/2d/2] [A/2d/2][c/2e/2][d/2f/2][e/2g/2]|"D"[f/2a/2][e/2g/2][d/2f/2][f/2a/2] "A7"[eg][eg]|
"D"[f/2a/2][a/2d'/2][a/2d'/2][b/2d'/2] [a/2d'/2][f/2a/2][d/2f/2][f/2a/2]|(3"D"[g/2b/2][a/2d'/2][g/2b/2][f/2a/2][d/2f/2] "G"[e/2g/2][d/2g/2][B/2d/2][c/2e/2]|\
"G"[d/2g/2][e/2g/2][d/2g/2][B/2d/2] "D"[A/2d/2][c/2e/2][d/2f/2][B/2d/2]|"A7"[A/2c/2][F/2A/2][E/2G/2][G/2A/2] "D"[F/2A/2][D/2F/2]D:|


